X: 115
T:Janet Munson's
M:4/4
L:1/8
F:http://blackrosetheband.googlepages.com/ABCTUNES.ABC May 2009
C:Oliver Schroer
S:Celtic Dance
K:G
|:"G"B3G AGGB|d2dc Bdde|"C"g2 (3gfe "G"dBGB|"C"cBAG "D"EDDG|"G"B3G AGGB| dedc Bdde|"C"g2 (3gfe "G"dBGB|"C"cBAG "D"A4:|
|:"Em"GBAF GEED|"D"FAAG FEDF|"Em"EBef "C"g3e|"G"dBGA "D"BAAD|"Em"GBAF GE (EDE|"D"D2 FA BAFD|"Em"Eeed "G"(3B^cd AF|"C"GBAF "D"D4:|

